src/actions/32/view-sort-ascending-name.svg

<svg xmlns="http://www.w3.org/2000/svg" viewBox="0 0 32 32">
  <defs
     id="defs3051">
    <style
       type="text/css"
       id="current-color-scheme">
      .ColorScheme-Text {
        color:#2e3440;
      }
      </style>
  </defs>
  <path
     style="fill:currentColor;fill-opacity:1;stroke:none" 
     d="M 11.080078 3.9980469 C 10.046938 3.9980469 9.1170449 4.1891988 8.2890625 4.5722656 L 8.6171875 5.4589844 C 8.9727054 5.2893975 9.3769931 5.1588477 9.8300781 5.0664062 C 10.283163 4.9693094 10.706616 4.9199219 11.101562 4.9199219 C 11.686296 4.9199219 12.112885 5.059278 12.380859 5.3359375 C 12.653512 5.6119318 12.789062 6.0311205 12.789062 6.59375 L 12.789062 7.3496094 L 11.554688 7.3515625 C 10.31238 7.3515625 9.405969 7.5464106 8.8359375 7.9394531 C 8.2705839 8.3271753 7.9882812 8.939469 7.9882812 9.7734375 C 7.9882813 10.471071 8.2018322 11.01516 8.6308594 11.408203 C 9.0645644 11.801246 9.6366205 11.998047 10.347656 11.998047 C 11.4102 11.998047 12.273295 11.594518 12.935547 10.785156 L 13.066406 11.845703 L 13.988281 11.845703 L 13.988281 6.7695312 C 13.988281 5.7899175 13.735062 5.083959 13.228516 4.6523438 C 12.726648 4.2160731 12.010305 3.9980469 11.080078 3.9980469 z M 11.863281 8.1484375 L 12.791016 8.1484375 L 12.791016 9.84375 C 12.211628 10.69235 11.422887 11.117188 10.423828 11.117188 L 10.421875 11.117188 C 10.057001 11.117187 9.753683 11.000344 9.5097656 10.767578 C 9.2658483 10.535477 9.1425781 10.206257 9.1425781 9.7792969 C 9.1425781 9.5418752 9.164879 9.3419168 9.2089844 9.1816406 C 9.25309 9.016709 9.3342252 8.8661383 9.4511719 8.7304688 C 9.5681185 8.590144 9.7291042 8.4821071 9.9335938 8.4042969 C 10.138083 8.3218313 10.398086 8.2587371 10.714844 8.2148438 C 11.031602 8.1709504 11.414875 8.1484375 11.863281 8.1484375 z M 8.1757812 14 L 8.2246094 14.900391 L 12.482422 14.900391 L 8 21.191406 L 8 22 L 14 22 L 13.966797 21.0625 L 9.5253906 21.0625 L 13.925781 14.861328 L 13.925781 14 L 8.1757812 14 z M 21 14 L 16 19 L 16.707031 19.707031 L 20.5 15.914062 L 20.5 28.003906 L 21.5 28.003906 L 21.5 15.914062 L 25.292969 19.707031 L 26 19 L 22 15 L 21 14 z "
     id="path8" 
     class="ColorScheme-Text"
     />
</svg>

<svg viewBox="0 0 32 32" xmlns="http://www.w3.org/2000/svg">
 <defs>
  <style type="text/css">.ColorScheme-Text {
        color:#2e3440;
      }</style>
 </defs>
 <path class="ColorScheme-Text" d="m11.08 3.998c-1.0331 0-1.963 0.19115-2.791 0.57422l0.32812 0.88672c0.35552-0.16959 0.75981-0.30014 1.2129-0.39258 0.45308-0.097097 0.87654-0.14648 1.2715-0.14648 0.58473 0 1.0113 0.13936 1.2793 0.41602 0.27265 0.27599 0.4082 0.69518 0.4082 1.2578v0.75586l-1.2344 0.0019531c-1.2423 0-2.1487 0.19485-2.7188 0.58789-0.56535 0.38772-0.84766 1-0.84766 1.834 1e-7 0.69763 0.21355 1.2417 0.64258 1.6348 0.4337 0.39304 1.0058 0.58984 1.7168 0.58984 1.0625 0 1.9256-0.40353 2.5879-1.2129l0.13086 1.0605h0.92188v-5.0762c0-0.97961-0.25322-1.6856-0.75976-2.1172-0.50187-0.43627-1.2182-0.6543-2.1484-0.6543zm0.7832 4.1504h0.92774v1.6953c-0.57939 0.8486-1.3681 1.2734-2.3672 1.2734h-0.001953c-0.36487-1e-6 -0.66819-0.11684-0.91211-0.34961-0.24392-0.2321-0.36719-0.56132-0.36719-0.98828 0-0.23742 0.022301-0.43738 0.066406-0.59766 0.044106-0.16493 0.12524-0.3155 0.24219-0.45117 0.11695-0.14032 0.27793-0.24836 0.48242-0.32617 0.20449-0.082466 0.46449-0.14556 0.78125-0.18945 0.31676-0.043893 0.70003-0.066406 1.1484-0.066406zm-3.6875 5.8516 0.048828 0.90039h4.2578l-4.4824 6.291v0.80859h6l-0.033203-0.9375h-4.4414l4.4004-6.2012v-0.86133h-5.75zm12.824 0-5 5 0.70703 0.70703 3.793-3.793v12.09h1v-12.09l3.793 3.793 0.70703-0.70703-5-5z" fill="currentColor"/>
</svg>
